!!!!SEGMENT: pl-wn--mus-iii-161-664_zelenski-wladyslaw--moja-pieszczotka.krn
!!!cenid: 18xx:3774
!!!COM: Żeleński, Władysław
!!!COM-rismID: pe41024455
!!!CDT: 1837/07/06-1921/01/23
!!!CNT: Polish
!!!OTL: Moja pieszczotka
!!!PDT:
!!!AGN:
!!!SMS-siglum: PL-Wn
!!!SMS-shelfmark: Mus.III.161.664
!!!SMS-shelfwork: W
!!!SMS-variant:
!!!SMS-altvar:
!!!NIFC-rismSourceID:
!!!NIFC-rismChildID:
!!!NIFC-islandoraID: none
!!!URL-pdf-islandora:
!!!URL-scan: https://polona.pl/item/moja-pieszczotka-piesn-z-towarzyszeniem-fortepianu-dzielo-2,NzQ3Nzg2OTU/0 @EN{Scan on Polona} @PL{Skany w portalu Polona}
!!!ONB-nifc:
!!!OMD: Quasi Mazurka, ma moderato.
!!!AIN: 2 piano 1 vox
!!!key: A
**kern	**kern	**dynam	**kern	**text	**dynam
*part3	*part2	*part2	*part1	*part1	*part1
*staff3	*staff2	*	*staff1	*staff1	*
*I"FORTEPIAN.	*I"FORTEPIAN.	*	*I"ŚPIEW.	*	*
*Ipiano	*Ipiano	*	*Ivox	*	*
*ICklav	*ICklav	*	*ICvox	*	*
*IGacmp	*IGacmp	*	*IGsolo	*	*
*clefF4	*clefG2	*	*clefG2	*	*
*k[f#c#g#]	*k[f#c#g#]	*	*k[f#c#g#]	*	*
*A:	*A:	*	*A:	*	*
*M3/4	*M3/4	*	*M3/4	*	*
=1	=1	=1	=1	=1	=1
*xywh-#3:329,1247,2377,634	*xywh-#3:329,1247,2377,634	*	*xywh-#3:260,625,2481,683	*	*
*ped	*	*	*	*	*
(4A\	8r	p	2.r	.	.
.	(8a/	.	.	.	.
*Xped	*	*	*	*	*
4e\	4ff# 4cc#'^\)	.	.	.	.
4c#\	4ee 4cc# 4a'\	.	.	.	.
*clefG2	*	*	*	*	*
=2	=2	=2	=2	=2	=2
*ped	*	*	*	*	*
4A/	8r	.	2.r	.	.
.	(8cc#\	.	.	.	.
*Xped	*	*	*	*	*
4a/	4bb 4ee'^\)	.	.	.	.
4e/	4aa 4ee 4cc#'\	.	.	.	.
=3	=3	=3	=3	=3	=3
*ped	*	*	*	*	*
4A/	8r	.	2.r	.	.
.	(8f#/	.	.	.	.
*Xped	*	*	*	*	*
4e/	4gg# 4cc#'^\)	.	.	.	.
4d#X/	4ff# 4cc# 4f#'\	.	.	.	.
=4	=4	=4	=4	=4	=4
4G#/	8r	.	2.r	.	.
.	(8g#/	.	.	.	.
4e/	4gg# 4b#X'^\)	.	.	.	.
4d#X/)	4ff# 4b# 4g#'\	.	.	.	.
!!linebreak:original
*clefF4	*	*	*	*	*
=5	=5	=5	=5	=5	=5
*xywh-#3:319,2102,2354,563	*xywh-#3:319,2102,2354,563	*	*xywh-#3:311,1850,2387,365	*	*
*ped	*	*	*	*	*
(4C#/	8r	.	2.r	.	.
.	(8g#/	.	.	.	.
*Xped	*	*	*	*	*
4c#\	4ff# 4cc#'^\)	.	.	.	.
4G#\	4ee 4cc# 4g#'\	.	.	.	.
=6	=6	=6	=6	=6	=6
*ped	*	*	*	*	*
4F#\	8r	.	2.r	.	.
.	(8e/	.	.	.	.
*Xped	*	*	*	*	*
4c#\	4dd#X 4a#X'^\)	.	.	.	.
4F#\	4cc# 4a# 4e'/	.	.	.	.
=7	=7	=7	=7	=7	=7
!	!	!	!	!	!LO:DY:a:t=%s grazioso
4BB/	8r	.	4f#/	Mo-	p
.	(8An/	.	.	.	.
4B\	4g# 4d#X'^>/)	.	4.g#/	-ja	.
4BB/	4f# 4d# 4A'/	.	.	.	.
.	.	.	8f#/	pie-	.
=8	=8	=8	=8	=8	=8
4E\	8r	.	(4e/	-szczot-	.
.	(8e/	.	.	.	.
4B\	4ddn 4g#'^>/)	.	8g#/L	.	.
.	.	.	8ddn/J)	.	.
4A\)	4cc# 4a 4e'/	.	4cc#\	-ka,	.
!!linebreak:original
=9	=9	=9	=9	=9	=9
*xywh-#3:287,2947,2393,544	*xywh-#3:287,2947,2393,544	*	*xywh-#3:295,2682,2451,362	*	*
(4C#/	8r	.	8r	.	.
.	(8c#/	.	(8c#/L	mo-	.
4G#\	4b 4e#X'^>/)	.	8e#X/	.	.
.	.	.	8b/J)	.	.
4F#\	4a 4f# 4c#'/	.	8a/	-ja	.
.	.	.	8g#/	pie-	.
=10	=10	=10	=10	=10	=10
4FF#/	8r	.	2g#/	-szczot-	.
.	(8B/	.	.	.	.
4E#X\	4g# 4c#'^>/)	.	.	.	.
4F#\	4f# 4c# 4A'/	.	4f#/	-ka	.
=11	=11	=11	=11	=11	=11
4F#\	8r	.	(4cc#\	Gdy	.
.	(8a/	.	.	.	.
!	!	!	!	!	!LO:DY:a
4d#X\	4gg# 4dd#X'^\)	.	4.b\)	.	<
4c#\	4ff# 4dd# 4a'\	.	.	.	.
.	.	.	8a/	w we-	.
=12	=12	=12	=12	=12	=12
4G#\	8r	.	(4g#/	-so-	.
.	(8g#/	.	.	.	.
4e\	4ff# 4cc#'^\)	.	8cc#\L	.	.
.	.	.	8ff#\J)	.	[
4c#\)	4ee 4cc# 4g#'\	.	4ee\	-łéj	.
!!pagebreak:original
=13	=13	=13	=13	=13	=13
*xywh-#4:453,908,2363,570	*xywh-#4:453,908,2363,570	*	*xywh-#4:478,539,2357,424	*	*
(4G#\	8r	.	8r	.	.
!	!	!	!	!	!LO:DY:a
.	(8g#/	.	(8g#\L	we-	>
4f#\	4ee 4b#X'^>/)	.	8b#X\	.	.
.	.	.	8ee\J)	.	.
4G#\	4dd#X 4b# 4f#'/	.	8dd#X\	-so-	.
.	.	.	8g#/	-łéj	]
=14	=14	=14	=14	=14	=14
4C#/	8r	.	2g#/	chwi-	.
.	(8e/	.	.	.	.
4c#\	4dd#X 4g#'^>/)	.	.	.	.
4G#\	4cc# 4g# 4e'/	.	4cc#\	-li	.
=15	=15	=15	=15	=15	=15
4BB/	8r	.	4f#/	Pocz-	.
.	(8A/	.	.	.	.
4B\	4g# 4d#X'^>/)	.	4.g#/	-nie	.
4BB/	4f# 4d# 4A'/	.	.	.	.
.	.	.	8f#/	szcze-	.
=16	=16	=16	=16	=16	=16
4E\	8r	.	(4e/	-bio-	.
.	(8e/	.	.	.	.
4B\	4ddn 4g#'^>/)	.	8g#/L	.	.
.	.	.	8ddn/J)	.	.
4A\)	4cc# 4a 4e'/	.	4cc#\	-tać	.
=17	=17	=17	=17	=17	=17
(4C#/	8r	.	8r	.	.
.	(8c#/	.	8c#/	i	.
4G#\	4b 4e#X'^>/)	.	(8e#X/L	kwi-	.
.	.	.	8b/J)	.	.
4F#\	4a 4f# 4c#'/	.	8a/	-lić	.
.	.	.	8g#/	i	.
=18	=18	=18	=18	=18	=18
4FF#/	8r	.	2g#/	gru-	.
.	(8B/	.	.	.	.
4E#X\	4g# 4c#'^>/)	.	.	.	.
4F#\)	4f# 4c# 4A'/	.	4f#/	-chać	.
!!linebreak:original
=19	=19	=19	=19	=19	=19
*xywh-#4:472,1817,2331,627	*xywh-#4:472,1817,2331,627	*	*xywh-#4:465,1507,2431,418	*	*
(4BB/	8r	.	4cc#\	Mo-	.
.	(8A/	.	.	.	.
4B\	4g# 4d#X'^>/)	.	4.b\	-ja	<
4BB/	4f# 4d# 4A'/	.	.	.	.
.	.	.	8a/	pie-	.
=20	=20	=20	=20	=20	=20
4E\	8r	.	(8a/L	-szczot-	.
.	(8e/	.	8e/	.	.
4c#\	4ee 4a'^>/)	.	8a/	.	.
.	.	.	8ff#/J)	.	[[
4A\)	4cc# 4a 4e'/	.	4ee\	-ka,	.
=21	=21	=21	=21	=21	=21
(4E\	8r	.	8r	.	.
.	(8e/	.	8e/	pie-	.
!	!	!	!	!	!LO:DY:a
4B\	4dd 4g#'^>/)	.	(4.dd\	-szczot-	pp
4E\	4g# 4d'/	.	.	.	.
.	.	.	8g#/)	.	.
=22	=22	=22	=22	=22	=22
4AA/	8r	.	2a/	-ka.	.
.	(8c#/	.	.	.	.
4A\	4b 4e'^>/)	.	.	.	.
4E;\)	4a 4e 4c#';/	.	4r	.	.
*clefG2	*	*	*	*	*
=23	=23	=23	=23	=23	=23
!	!	!	!LO:TX:b:i:t=più vivo	!	!
8d/L	4aaTt\	pp	2.r	.	.
8fn/	.	.	.	.	.
8d/	8ggn\L	.	.	.	.
8f/	8ffn\	.	.	.	.
8d/	8ee\	.	.	.	.
8f/J	8dd\J	.	.	.	.
=24	=24	=24	=24	=24	=24
8d/L	8cc#\L	.	2.r	.	.
8fn/	8dd\	.	.	.	.
8d/	8ee\	.	.	.	.
8f/	8a\	.	.	.	.
8d/	8b\	.	.	.	.
8f/J	8cc#\J	.	.	.	.
!!linebreak:original
=25	=25	=25	=25	=25	=25
*xywh-#4:493,2826,2361,608	*xywh-#4:493,2826,2361,608	*	*xywh-#4:443,2481,2421,398	*	*
!	!	!	!LO:TX:a:i:t=scherzando	!	!
8d/L	(8dd\L	.	4a/	Tak	.
8fn/	8ee\	.	.	.	.
8d/	8ffn\	.	4a/	mi-	.
8f/	8a\	.	.	.	.
8d/	8dd\	.	4a/	-le	.
8f/J	8ee\J	.	.	.	.
=26	=26	=26	=26	=26	=26
8d/L	8ffn\L	.	4a/	gru-	.
8fn/	8a\	.	.	.	.
8d/	8cc#\	.	4a/	-cha,	.
8f/	8dd\	.	.	.	.
8d/	8ee\	.	4a/	szcze-	.
8f/J	8a\J)	.	.	.	.
=27	=27	=27	=27	=27	=27
!	!	!	!	!	!LO:DY:a
8d/L	(8cc#\L	<	4a/	-bio-	<
8fn/	8dd\	.	.	.	.
8d/	8ee\	.	4a/	-ce	.
8f/	8a\	.	.	.	.
8d/	8cc#\	.	4a/	i	.
8f/J	8dd\J	.	.	.	.
=28	=28	=28	=28	=28	=28
8d/L	8ee\L	.	(4a/	kwi-	.
8fn/	8a\	.	.	.	.
8d/	8dd\	.	8dd\L	.	.
8f/	8ee\J	.	8ee\J)	.	.
!	!	!	!LO:N:vis=8	!	!
8d/	4ffn\)	[	4ffn\	-li	[
8f/J	.	.	.	.	.
=29	=29	=29	=29	=29	=29
!	!	!	!LO:TX:a:i:t=con affetto	!	!
8eL 8c#/	4r	.	4ee\	tak	.
8gn/	.	.	.	.	.
.	8qaa/	.	.	.	.
8e 8c#/	4ggn'\	.	4.b-X\	mi-	.
8g/	.	.	.	.	.
.	8qfffn/	.	.	.	.
8e 8c#/	4eee'\	.	.	.	.
8g/J	.	.	8ee\	-le	.
=30	=30	=30	=30	=30	=30
8dL 8cn/	4r	.	4a/	gru-	.
8f#X/	.	.	.	.	.
.	8qbb-X/	.	.	.	.
8d 8c/	4aa'\	.	2dd\	-cha,	.
8f#/	.	.	.	.	.
.	8qeee/	.	.	.	.
8d 8c/	4ddd'\	.	.	.	.
8f#/J	.	.	.	.	.
!!pagebreak:original
=31	=31	=31	=31	=31	=31
*xywh-#5:303,919,2394,605	*xywh-#5:303,919,2394,605	*	*xywh-#5:308,561,2412,410	*	*
8eL 8d 8B-X/	4r	.	8ee\	szcze-	.
8g#X/	.	.	8ee\	-bio-	.
.	8qaa/	.	.	.	.
8e 8d 8B-/	4gg#X'\	.	4.g#X/	-ce	.
8g#/	.	.	.	.	.
.	8qfffn/	.	.	.	.
8e 8d 8B-/	4eee'\	.	.	.	.
8g#/J	.	.	8ee\	i	.
=32	=32	=32	=32	=32	=32
8fnL 8d 8A/	4r	.	4a/	kwi-	.
8a/	.	.	.	.	.
.	8qbb-X/	.	.	.	.
8f 8d 8A/	4aa'\	.	2dd\	-li,	.
8a/	.	.	.	.	.
.	8qeee/	.	.	.	.
8f 8d 8A/	4ddd'\	.	.	.	.
8a/J	.	.	.	.	.
*clefF4	*	*	*	*	*
=33	=33	=33	=33	=33	=33
8B-X\L	(4ffnT\	pp	4fn/	Że	.
8d\	.	.	.	.	.
8B-\	8ee-X\L	.	4f/	nie	.
8d\	8dd\	.	.	.	.
8B-\	8ccn\	.	4f/	chcąc	.
8d\J	8b-X\J	.	.	.	.
=34	=34	=34	=34	=34	=34
8B-X\L	8a/L	.	4fn/	słów-	.
8d\	8b-X/	.	.	.	.
8B-\	8ccn/	.	4f/	-ka	.
8d\	8fn/	.	.	.	.
8B-\	8gn/	.	4f/	ża-	.
8d\J	8a/J)	.	.	.	.
=35	=35	=35	=35	=35	=35
!	!	!	!	!	!LO:DY:a
8B-X\L	(8b-X/L	<	4fn/	-dne-	<
8d\	8ccn/	.	.	.	.
8B-\	8dd/	.	4f/	-go	.
8d\	8fn/	.	.	.	.
8B-\	8a/	.	4f/	po-	.
8d\J	8b-/J	.	.	.	.
=36	=36	=36	=36	=36	=36
8B-X\L	8ccn/L	.	(4fn/	-stra-	.
8d\	8fn/	.	.	.	.
8B-\	8b-X/	.	8b-X\L	.	.
8d\	8cc/J	.	8ccn\J)	.	.
8B-\	4dd\)	[	4dd\	-dać	[
8d\J	.	.	.	.	.
!!linebreak:original
=37	=37	=37	=37	=37	=37
*xywh-#5:299,1904,2382,570	*xywh-#5:299,1904,2382,570	*	*xywh-#5:273,1560,2476,391	*	*
!	!	!	!LO:TX:a:i:t=con affétto	!	!
8cnL 8A\	4r	.	4ccn\	Nie	.
8e-X\	.	.	.	.	.
.	8qffn/	.	.	.	.
8c 8A\	4ee-X'\	.	4.gn/	śmiem	.
8e-\	.	.	.	.	.
.	8qddd/	.	.	.	.
8c 8A\	4cccn'\	.	.	.	.
8e-\J	.	.	8cc\	prze-	.
=38	=38	=38	=38	=38	=38
8B-XL 8A-X\	4r	.	4fn/	-ry-	.
8d\	.	.	.	.	.
.	8qggn/	.	.	.	.
8B- 8A-\	4ffn'\	.	2b-X\	-wać,	.
8d\	.	.	.	.	.
.	8qcccn/	.	.	.	.
8B- 8A-\	4bb-X'\	.	.	.	.
8d\J	.	.	.	.	.
=39	=39	=39	=39	=39	=39
8cnL 8B-X 8G-X\	4r	.	8ccn\	nie	.
8en\	.	.	8cc\	śmiem	.
.	8qffn/	.	.	.	.
8c 8B- 8G-\	4een'\	.	4.en/	od-	.
8e\	.	.	.	.	.
.	8qddd/	.	.	.	.
8c 8B- 8G-\	4cccn'\	.	.	.	.
8e\J	.	.	8cc#X\	-po-	.
=40	=40	=40	=40	=40	=40
8dnL 8B-X 8Fn\	4r	.	4fn/	-wia-	.
8fn\	.	.	.	.	.
.	8qggn/	.	.	.	.
8d 8B- 8F\	4ffn'\	.	4.b-X\	-dać,	.
8f\	.	.	.	.	.
.	8qcccn/	.	.	.	.
8d 8B- 8F\	4bb-X'\	.	.	.	.
8f\J	.	.	8b-\	I	.
=41	=41	=41	=41	=41	=41
!	!	!	!LO:TX:a:i:t=lentando	!	!LO:DY:a
[2.Bn [2.Fn\	8r	.	2.a/	tyl-	>]
.	(8d/L	.	.	.	.
.	8a/	.	.	.	.
.	8ee/	.	.	.	.
.	8dd/	.	.	.	.
.	[8d/J)	.	.	.	.
!!linebreak:original
=42	=42	=42	=42	=42	=42
*	*^	*	*	*	*
*xywh-#5:256,2905,2448,601	*xywh-#5:256,2905,2448,601	*xywh-#5:256,2905,2448,601	*	*xywh-#5:227,2507,2518,468	*	*
4B] 4FnX\]	2.g#X/	2.d\]	.	4g#X/	-ko	.
8B\L	.	.	.	4r	.	.
8E\J	.	.	.	.	.	.
4B\	.	.	.	4r	.	.
*	*v	*v	*	*	*	*
=43	=43	=43	=43	=43	=43
[2.c#X\	8r	.	2.bn\	chciał-	.
!	!	!	!	!	!LO:HP:a
.	8e/L	.	.	.	>
.	8b/	.	.	.	.
.	8ff#/	.	.	.	.
.	8ee/	.	.	.	.
.	[8e/J	.	.	.	]]
=44	=44	=44	=44	=44	=44
*	*^	*	*	*	*
*	*	*xywh-#5:256,2905,2448,601	*	*	*	*
4c#\]	2.a#X/	2.e\]	.	4a#X/	-bym	.
8c#\L	.	.	.	4r	.	.
8F#\J	.	.	.	.	.	.
4c#\	.	.	.	4r	.	.
*clefG2	*	*	*	*	*	*
=45	=45	=45	=45	=45	=45	=45
!	!	!	!LO:HP:t=crescendo e stringendo	!	!	!LO:DY:a
[2e/	8r	8ryy	<	2dd\	słu-	>
.	(8gn/L	[4.g\	.	.	.	.
.	8dd/	.	.	.	.	.
.	8ggn/J)	.	.	.	.	.
8e/L]	4cc#/	4g\]	.	4cc#\	-chać,	]
8A#X/J	.	.	.	.	.	.
=46	=46	=46	=46	=46	=46	=46
!	!	!	!	!	!	!LO:DY:a
[2f#/	8r	8ryy	.	2ee\	słu-	>
.	(8a/L	[4.a\	.	.	.	.
.	8ee/	.	.	.	.	.
.	8aa/J)	.	.	.	.	.
8f#/L]	4dd#X/	4a\]	.	4dd#X\	-chać,	]
8B#X/J	.	.	.	.	.	.
*	*v	*v	*	*	*	*
=47	=47	=47	=47	=47	=47
[2.a [2.e [2.c#/	8r	.	2.ff#\	słu-	.
.	8ee\L	.	.	.	.
.	8aa\	.	.	.	.
.	8ddd\	.	.	.	.
.	8ccc#\	.	.	.	.
.	8cc#\J	.	.	.	.
=48	=48	=48	=48	=48	=48
!	!LO:TX:t=P:problem=mixed beam	!	!	!	!
!	!LO:TX:b:i:t=rall.	!	!	!	!
2.a] 2.e] 2.c#/]	8ee\L	.	2.ee;\	-chać.	.
.	8bb\	.	.	.	.
.	8aa\	.	.	.	.
.	8e/J	.	.	.	.
.	4ee 4a;\	.	.	.	.
!!pagebreak:original
*clefF4	*	*	*	*	*
=49	=49	=49	=49	=49	=49
*xywh-#6:501,744,2388,451	*xywh-#6:501,744,2388,451	*	*xywh-#6:450,389,2430,457	*	*
!	!	!	!LO:TX:a:t=Tempo I.	!	!LO:DY:a:t=%s grazioso
(4BB/	8r	p	4f#/	Lecz	p
.	(8A/	.	.	.	.
4B\	4g# 4d#X'^>/)	.	4.g#/	mo-	.
4BB/	4f# 4d# 4A'/	.	.	.	.
.	.	.	8f#/	-wy	.
=50	=50	=50	=50	=50	=50
4E\	8r	.	(4e/	ży-	.
.	(8e/	.	.	.	.
4B\	4ddn 4g#'^>/)	.	8g#/L	.	.
.	.	.	8ddn/J)	.	.
4A\)	4cc# 4a 4e'/	.	4cc#\	-wość,	.
=51	=51	=51	=51	=51	=51
(4C#/	8r	.	8r	.	.
.	(8c#/	.	8c#/	gdy	.
4G#\	4b 4e#X'^>/)	.	(8e#X/L	ocz-	.
.	.	.	8b/J)	.	.
4F#\	4a 4f# 4c#'/	.	8a/	-ka	.
.	.	.	8g#/	za-	.
=52	=52	=52	=52	=52	=52
4FF#/	8r	.	2g#/	-pa-	.
.	(8B/	.	.	.	.
4E#X\	4g# 4c#'^>/)	.	.	.	.
4F#\)	4f# 4c# 4A'/	.	4f#/	-li,	.
=53	=53	=53	=53	=53	=53
!	!	!	!	!	!LO:DY:a
(4F#\	8r	.	4cc#\	I	<
.	(8a/	.	.	.	.
4d#X\	4gg# 4dd#X'\)	.	4.b\	po-	.
4c#\	4ff# 4dd# 4a'\	.	.	.	.
.	.	.	8a/	-cznie	[[
!!linebreak:original
=54	=54	=54	=54	=54	=54
*xywh-#6:478,1499,2375,460	*xywh-#6:478,1499,2375,460	*	*xywh-#6:498,1227,2336,367	*	*
4G#\	8r	.	(4g#/	mo-	.
.	(8g#/	.	.	.	.
4e\	4ff# 4cc#'^\)	.	8cc#\L	.	.
.	.	.	8ff#\J)	.	.
4c#\)	4ee 4cc# 4g#'\	.	4ee\	-cniéj	.
=55	=55	=55	=55	=55	=55
(4G#\	8r	.	8r	.	.
.	(8g#/	.	8g#/	ja-	>
4f#\	4ee 4b#X'^\)	.	(8b#X\L	-go-	.
.	.	.	8ee\J)	.	.
4G#\	4dd#X 4b# 4f#'/	.	8dd#X\	-dy	.
.	.	.	8g#/	ró-	]
=56	=56	=56	=56	=56	=56
4C#/	8r	.	2g#/	-żo-	.
.	(8e/	.	.	.	.
4c#\	4dd#X 4g#'^>/)	.	.	.	.
4G#\)	4cc# 4g# 4e'/	.	4cc#\	-wać	.
=57	=57	=57	=57	=57	=57
(4BB/	8r	.	4f#/	Per-	.
.	(8A/	.	.	.	.
4B\	4g# 4d#X'^>/)	.	4.g#/	-ło-	.
4BB/	4f# 4d# 4A'/	.	.	.	.
.	.	.	8f#/	-we	.
=58	=58	=58	=58	=58	=58
4E\	8r	.	(4e/	ząb-	.
.	(8e/	.	.	.	.
4B\	4ddn 4g#'^>/)	.	8g#\L	.	.
.	.	.	8ddn\J)	.	.
4A\)	4cc# 4a 4e'/	.	4cc#\	-ki	.
!!linebreak:original
=59	=59	=59	=59	=59	=59
*xywh-#6:462,2298,2414,419	*xywh-#6:462,2298,2414,419	*	*xywh-#6:523,2033,2304,302	*	*
(4C#/	8r	.	8r	.	.
.	(8c#/	.	(8c#/L	bły-	.
4G#\	4b 4e#X'^>/)	.	8e#X/J)	.	.
.	.	.	8b/	-sną	.
4F#\	4a 4f# 4c#'/	.	8a/	śród	.
.	.	.	8g#/	ko-	.
=60	=60	=60	=60	=60	=60
4FF#/	8r	.	2g#/	-ra-	.
.	(8B/	.	.	.	.
4E#X\	4g# 4c#'^>/)	.	.	.	.
4F#\)	4f# 4c# 4A'/	.	4f#/	-li:	.
=61	=61	=61	=61	=61	=61
(4BB/	8r	.	4cc#\	Per-	.
.	(8A/	.	.	.	.
4B\	4g# 4d#X'^>/)	.	4.b\	-ło-	.
4BB/	4f# 4d# 4A'/	.	.	.	.
.	.	.	8a/	-we	.
=62	=62	=62	=62	=62	=62
4E\	8r	.	(8a/L	ząb-	.
.	(8e/	.	8e/	.	.
4c#\	4ee 4a'^>/)	.	8a/	.	.
.	.	.	8ff#/J)	.	.
4A\)	4cc# 4a 4e'/	.	4ee\	-ki	.
=63	=63	=63	=63	=63	=63
(4E\	8r	.	8r	.	.
!	!	!	!	!	!LO:DY:a
.	(8e/	.	8e/	per-	pp
4B\	4dd 4g#'^>/)	.	(4.dd\	-ło-	.
4E\)	4g# 4d'/	.	.	.	.
.	.	.	8g#/)	.	.
!!linebreak:original
=64	=64	=64	=64	=64	=64
*xywh-#6:481,2965,2381,538	*xywh-#6:481,2965,2381,538	*	*xywh-#6:514,2762,2327,338	*	*
(4AA/	8r	.	2a/	-we:	.
.	(8c#/	.	.	.	.
4A\	4b 4e'^>/)	.	.	.	.
4E;\)	4a 4e 4c#';/	.	4r;	.	.
*clefG2	*	*	*	*	*
=65	=65	=65	=65	=65	=65
!	!	!	!LO:TX:a:i:t=più vivo	!	!
8d/L	(4aaTt\	pp	2.r	.	.
8fn/	.	.	.	.	.
8d/	8ggn\L	.	.	.	.
8f/	8ffn\	.	.	.	.
8d/	8ee\	.	.	.	.
8f/J	8dd\J	.	.	.	.
=66	=66	=66	=66	=66	=66
8d/L	8cc#\L	.	2.r	.	.
8fn/	8dd\	.	.	.	.
8d/	8ee\	.	.	.	.
8f/	8a\	.	.	.	.
8d/	8b\	.	.	.	.
8f/J	8cc#\J)	.	.	.	.
=67	=67	=67	=67	=67	=67
!	!	!	!LO:TX:a:i:t=scherzando	!	!
8d/L	(8dd\L	.	4a/	Ach!	.
8fn/	8ee\	.	.	.	.
8d/	8ffn\	.	4a/	w ten-	.
8f/	8a\	.	.	.	.
8d/	8dd\	.	4a/	-czas	.
8f/J	8ee\J	.	.	.	.
=68	=68	=68	=68	=68	=68
8d/L	8ffn\L	.	4a/	śmie-	.
8fn/	8a\	.	.	.	.
8d/	8cc#\	.	4a/	-léj	.
8f/	8dd\	.	.	.	.
8d/	8ee\	.	4a/	w o-	.
8f/J	8a\J)	.	.	.	.
!!pagebreak:original
=69	=69	=69	=69	=69	=69
*xywh-#7:303,702,2394,529	*xywh-#7:303,702,2394,529	*	*xywh-#7:302,431,2409,359	*	*
!	!	!	!	!	!LO:DY:a
8d/L	(8cc#\L	<	4a/	-czę-	<
8fn/	8dd\	.	.	.	.
8d/	8ee\	.	4a/	-ta	.
8f/	8a\	.	.	.	.
8d/	8cc#\	.	4a/	po-	.
8f/J	8dd\J	.	.	.	.
=70	=70	=70	=70	=70	=70
8d/L	8ee\L	.	(4a/	-glą-	.
8fn/	8a\	.	.	.	.
8d/	8dd\	.	8dd\L	.	.
8f/	8ee\J	.	8ee\J)	.	.
8d/	4ffn\)	[	4ffn\	-dam,	[
8f/J	.	.	.	.	.
=71	=71	=71	=71	=71	=71
!	!	!	!LO:TX:a:i:t=con affetto	!	!
8eL 8c#/	4r	.	4ee\	Ach!	.
8gn/	.	.	.	.	.
.	8qaa/	.	.	.	.
8e 8c#/	4ggn'\	.	4.b-X\	wten-	.
8g/	.	.	.	.	.
.	8qfffn/	.	.	.	.
8e 8c#/	4eee'\	.	.	.	.
8g/J	.	.	8ee\	-czas	.
=72	=72	=72	=72	=72	=72
8dL 8cn/	4r	.	4a/	śmie-	.
8f#X/	.	.	.	.	.
.	8qbb-X/	.	.	.	.
8d 8c/	4aa'\	.	2dd\	-léj	.
8f#/	.	.	.	.	.
.	8qeee/	.	.	.	.
8d 8c/	4ddd'\	.	.	.	.
8f#/J	.	.	.	.	.
=73	=73	=73	=73	=73	=73
8eL 8d 8B-X/	4r	.	8ee\	w o-	.
8g#X/	.	.	8ee\	-czę-	.
.	8qaa/	.	.	.	.
8e 8d 8B-/	4gg#X'\	.	4.g#X/	-ta	.
8g#/	.	.	.	.	.
.	8qfffn/	.	.	.	.
8e 8d 8B-/	4eee'\	.	.	.	.
8g#/J	.	.	8ee\	po-	.
!!linebreak:original
=74	=74	=74	=74	=74	=74
*xywh-#7:308,1476,2367,537	*xywh-#7:308,1476,2367,537	*	*xywh-#7:289,1202,2400,375	*	*
8fnL 8d 8A/	4r	.	4a/	-glą-	.
8a/	.	.	.	.	.
.	8qbb-X/	.	.	.	.
8f 8d 8A/	4aa'\	.	2dd\	-dam	.
8a/	.	.	.	.	.
.	8qeee/	.	.	.	.
8f 8d 8A/	4ddd'\	.	.	.	.
8a/J	.	.	.	.	.
*clefF4	*	*	*	*	*
=75	=75	=75	=75	=75	=75
8B-X\L	(4ffnT\	pp	4fn/	U-	.
8d\	.	.	.	.	.
8B-\	8ee-X\L	.	4f/	-sta	.
8d\	8dd\	.	.	.	.
8B-\	8ccn\	.	4f/	po-	.
8d\J	8b-X\J	.	.	.	.
=76	=76	=76	=76	=76	=76
8B-X\L	8a/L	.	4fn/	-my-	.
8d\	8b-X/	.	.	.	.
8B-\	8ccn/	.	4f/	-kam	.
8d\	8fn/	.	.	.	.
8B-\	8gn/	.	4f/	i	.
8d\J	8a/J)	.	.	.	.
=77	=77	=77	=77	=77	=77
!	!	!	!	!	!LO:DY:a
8B-X\L	(8b-X/L	<	4fn/	słu-	<
8d\	8ccn/	.	.	.	.
8B-\	8dd/	.	4f/	-chać	.
8d\	8fn/	.	.	.	.
8B-\	8a/	.	4f/	nie	.
8d\J	8b-/J	.	.	.	.
=78	=78	=78	=78	=78	=78
8B-X\L	8ccn/L	.	(4fn/	żą-	.
8d\	8fn/	.	.	.	.
8B-\	8b-X/	.	8b-X\L	.	.
8d\	8ccn/J	.	8ccn\J)	.	.
8B-\	4dd\)	[[	4dd\	-dam,	[[
8d\J	.	.	.	.	.
=79	=79	=79	=79	=79	=79
!	!	!	!LO:TX:a:i:t=con affetto	!	!
8cnL 8An\	4r	.	4ccn\	u-	.
8e-X\	.	.	.	.	.
.	8qff#/	.	.	.	.
8c 8A\	4ee-X'\	.	4.g-X/	-sta	.
8e-\	.	.	.	.	.
.	8qddd/	.	.	.	.
8c 8A\	4cccn'\	.	.	.	.
8e-\J	.	.	8cc\	po-	.
!!linebreak:original
=80	=80	=80	=80	=80	=80
*xywh-#7:273,2232,2437,496	*xywh-#7:273,2232,2437,496	*	*xywh-#7:350,1976,2370,365	*	*
8B-XL 8A-X\	4r	.	4fn/	-my-	.
8d\	.	.	.	.	.
.	8qggn/	.	.	.	.
8B- 8A-\	4ffn'\	.	2b-X\	-kam	.
8d\	.	.	.	.	.
.	8qcccn/	.	.	.	.
8B- 8A-\	4bb-X'\	.	.	.	.
8d\J	.	.	.	.	.
=81	=81	=81	=81	=81	=81
8cnL 8B-X 8G-X\	4r	.	8ccn\	i	.
8en\	.	.	8cc\	słu-	.
.	8qffn/	.	.	.	.
8c 8B- 8G-\	4een'\	.	4.en/	-chać	.
8e\	.	.	.	.	.
.	8qddd/	.	.	.	.
8c 8B- 8G-\	4cccn'\	.	.	.	.
8e\J	.	.	8cc\	nie	.
=82	=82	=82	=82	=82	=82
8dL 8B-X 8Fn\	4r	.	4fn/	żą-	.
8fn\	.	.	.	.	.
.	8qggn/	.	.	.	.
8d 8B- 8F\	4ffn'\	.	4.b-X\	-dam.	.
8f\	.	.	.	.	.
.	8qcccn/	.	.	.	.
8d 8B- 8F\	4bb-X'\	.	.	.	.
8f\J	.	.	8b-\	I	.
=83	=83	=83	=83	=83	=83
!	!	!	!LO:TX:a:i:t=lentando	!	!LO:DY:a
[2.Bn [2.Fn\	8r	.	2.a/	tyl-	>]
.	(8d/L	<	.	.	.
.	8a/	.	.	.	.
.	8ee/	[ >	.	.	.
.	8dd/	.	.	.	.
.	[8d/J)	]]	.	.	.
=84	=84	=84	=84	=84	=84
*	*^	*	*	*	*
*	*	*xywh-#7:273,2232,2437,496	*	*	*	*
4B] 4F\]	2.g#X/	2.d\]	.	4g#X/	-ko	.
8B\L	.	.	.	4r	.	.
8E\J	.	.	.	.	.	.
4B\	.	.	.	4r	.	.
*	*v	*v	*	*	*	*
!!linebreak:original
=85	=85	=85	=85	=85	=85
*xywh-#7:295,3044,2396,502	*xywh-#7:295,3044,2396,502	*	*xywh-#7:321,2750,2364,349	*	*
!	!	!	!	!	!LO:DY:a
[2.c#X\	8r	.	2.bn\	chciał-	.
.	(8e/L	<	.	.	>
.	8b/	.	.	.	.
.	8ff#/	[ >	.	.	.
.	8ee/	.	.	.	.
.	[8e/J)	]]	.	.	]
=86	=86	=86	=86	=86	=86
*	*^	*	*	*	*
*	*	*xywh-#7:295,3044,2396,502	*	*	*	*
4c#\]	2.a#X/	2.e\]	.	4a#X/	-bym	.
8c#\L	.	.	.	4r	.	.
8F#\J	.	.	.	.	.	.
4c#\	.	.	.	8r	.	.
.	.	.	.	8a#/	ca-	.
*clefG2	*	*	*	*	*	*
=87	=87	=87	=87	=87	=87	=87
[2e/	8r	8ryy	.	2dd\	-ło-	.
*	*	*xywh-#7:295,3044,2396,502	*	*	*	*
!	!LO:TX:b:t=	!	!LO:HP:t=cresc. e stringendo	!	!	!LO:HP:a
.	8gn/L	[4.g\	<	.	.	>
.	8dd/	.	.	.	.	.
.	8ggn/J	.	.	.	.	.
8e/L]	4cc#/	4g\]	.	8cc#\	-wać,	.
8A#X/J	.	.	.	8cc#\	ca-	]
=88	=88	=88	=88	=88	=88	=88
[2f#/	8r	8ryy	.	2ee\	-ło-	.
!	!	!	!	!	!	!LO:HP:a
.	8a/L	[4.a\	.	.	.	>
.	8ee/	.	.	.	.	.
.	8aa/J	.	.	.	.	.
8f#/L]	4dd#X/	4a\]	.	8dd#X\	-wać,	.
8B#X/J	.	.	.	8dd#\	ca-	]
*	*v	*v	*	*	*	*
=89	=89	=89	=89	=89	=89
[2.a [2.e [2.c#/	8r	.	2.ff#\	-ło-	.
!	!	!	!	!	!LO:HP:a
.	8ee\L	>	.	.	>
.	8aa\	.	.	.	.
.	8ddd\	.	.	.	.
.	8ccc#\	.	.	.	.
.	8cc#\J	.	.	.	]]
=90	=90	=90	=90	=90	=90
!	!LO:TX:t=P:problem=mixed beam	!	!	!	!
2.a] 2.e] 2.c#;</]	8ee\L	.	2.ee;\	-wać.	.
.	8bb\	]	.	.	.
!	!LO:TX:b:i:t=rall.	!	!	!	!
.	8aa\	.	.	.	.
.	8e/J	.	.	.	.
.	4ee 4a;\	.	.	.	.
!!pagebreak:original
*clefF4	*	*	*	*	*
=91	=91	=91	=91	=91	=91
*xywh-#8:428,714,2421,492	*xywh-#8:428,714,2421,492	*	*xywh-#8:474,459,2397,370	*	*
!	!	!	!	!	!LO:DY:a
(4BB/	8r	.	4f#/	Ach!	p
!	!	!	!LO:TX:a:i:t=a tempo	!	!
.	(8A/	.	.	.	.
4B\	4g# 4d#X'^>/)	.	4.g#/	wten-	.
4BB/	4f# 4d# 4A'/	.	.	.	.
.	.	.	8f#/	-czas	.
=92	=92	=92	=92	=92	=92
4E\	8r	.	(4e/	śmie-	.
.	(8e/	.	.	.	.
4B\	4ddn 4g#'^>/)	.	8g#/L	.	.
.	.	.	8dd/J)	.	.
4A\)	4cc# 4a 4e'/	.	4cc#\	-léj	.
=93	=93	=93	=93	=93	=93
(4C#/	8r	.	8r	.	.
.	(8c#/	.	8c#/	w o-	.
4G#\	4b 4e#X'^>/)	.	(8e#X/L	-czę-	.
.	.	.	8b/J)	.	.
4F#\	4a 4f# 4c#'/	.	8a/	-ta	.
.	.	.	8g#/	po-	.
=94	=94	=94	=94	=94	=94
4FF#/	8r	.	2g#/	-glą-	.
.	(8B/	.	.	.	.
4E#X\	4g# 4c#'^>/)	.	.	.	.
4F#\)	4f# 4c# 4A'/	.	4f#/	-dam	.
=95	=95	=95	=95	=95	=95
(4BB/	8r	.	4cc#\	U-	.
.	(8A/	.	.	.	.
!	!	!	!	!	!LO:DY:a
4B\	4g# 4d#X'^>/)	.	4.b\	-sta	.
4BB/	4f# 4d# 4A'/	.	.	.	<
.	.	.	8a/	po-	.
!!linebreak:original
=96	=96	=96	=96	=96	=96
*xywh-#8:415,1480,2431,473	*xywh-#8:415,1480,2431,473	*	*xywh-#8:428,1178,2457,440	*	*
4E\	8r	.	(8a/L	-my-	.
.	(8e/	.	8e/	.	.
4c#\	4dd 4a'^>/)	.	8a/	.	.
.	.	.	8dd/J)	.	[
4A\)	4cc# 4a 4e'/	.	4cc#\	-kam	.
=97	=97	=97	=97	=97	=97
(4E#X\	8r	.	8r	.	.
.	(8d/	.	8d/	i	.
!	!	!	!	!	!LO:DY:a
4B\	4cc# 4g#'^>/)	.	(8d/L	słu-	>
.	.	.	8cc#/J)	.	.
4G#\	4b 4g# 4d'/	.	4b\	-chać	.
=98	=98	=98	=98	=98	=98
4F#\	8r	.	8r	.	.
.	(8c#/	.	8c#/	nie	.
4c#\	4b 4f#'^>/)	.	(8c#/L	żą-	.
.	.	.	8b/J)	.	]
4F#\)	4a 4f# 4c#'/	.	4a/	-dam,	.
=99	=99	=99	=99	=99	=99
!	!	!	!LO:TX:a:i:t=con gran affetto	!	!
(4BB/	8r	.	4cc#\	Tyl-	.
.	(8A/	.	.	.	.
!	!	!	!	!	!LO:DY:a
4B\	4g# 4d#X'^>/)	.	4.b\	-ko	<
4BB/	4f# 4d# 4A'/	<	.	.	.
.	.	.	8a/	ca-	.
=100	=100	=100	=100	=100	=100
4E\	8r	.	(8a/L	-ło-	.
.	(8e/	.	8e/	.	.
4c#\	4ee 4a'^>/)	.	8a/	.	.
.	.	[	8ff#/J)	.	[
4A\)	4cc# 4a 4e'/	.	(4ee\	-wać	.
!!linebreak:original
=101	=101	=101	=101	=101	=101
*xywh-#8:447,2208,2418,576	*xywh-#8:447,2208,2418,576	*	*xywh-#8:414,1985,2485,343	*	*
(4E\	8r	.	8ee\)	.	.
.	(8e/	.	8e/	ca-	.
4B\	4dd 4g#'^>;/)	.	(4.dd;\	-ło-	.
4E\	4g# 4d'/	.	.	.	.
.	.	.	8g#/)	.	.
=102	=102	=102	=102	=102	=102
4AA/	8r	.	2a/	-wać.	.
.	(8c#/	.	.	.	.
4A\	4b 4e'^>/)	.	.	.	.
4E\)	4a 4e 4c#'/	.	4r	.	.
*clefG2	*	*	*	*	*
=103	=103	=103	=103	=103	=103
(4A/	8r	.	2.r	.	.
.	(8cc#\	.	.	.	.
4a/	4bb 4ee'^\)	.	.	.	.
4e/	4aa 4ee 4cc#'\	.	.	.	.
=104	=104	=104	=104	=104	=104
4A/	8r	.	2.r	.	.
.	(8f#/	.	.	.	.
4e/	4gg# 4cc#'^\)	.	.	.	.
4d#X/)	4ff# 4cc# 4f#'\	.	.	.	.
=105	=105	=105	=105	=105	=105
(4G#/	8r	.	2.r	.	.
.	(8g#/	.	.	.	.
4e/	4gg# 4b#X'^\)	.	.	.	.
4d#X/	4ff# 4b# 4g#'\	.	.	.	.
*clefF4	*	*	*	*	*
=106	=106	=106	=106	=106	=106
4C#/	8r	.	2.r	.	.
.	(8g#/	.	.	.	.
4c#\	4ff# 4cc#'^\)	.	.	.	.
4G#\)	4ee 4cc# 4g#'\	.	.	.	.
!!linebreak:original
=107	=107	=107	=107	=107	=107
*xywh-#8:431,3007,2450,524	*xywh-#8:431,3007,2450,524	*	*xywh-#8:460,2759,2378,324	*	*
(4F#\	8r	.	2.r	.	.
.	(8e/	.	.	.	.
4c#\	4dd 4a#X'^>/)	.	.	.	.
4F#\	4cc# 4a# 4e'/	.	.	.	.
=108	=108	=108	=108	=108	=108
4BB/	8r	.	2.r	.	.
.	(8d#X/	.	.	.	.
4B\	4cc# 4an'^>/)	.	.	.	.
4F#\)	4b 4a 4d#'/	.	.	.	.
=109	=109	=109	=109	=109	=109
(4E\	8r	.	2.r	.	.
.	(8dn/	.	.	.	.
4e\	4cc# 4g#'^>/)	.	.	.	.
4E\	4b 4g# 4d'/	.	.	.	.
=110	=110	=110	=110	=110	=110
4AA/	8r	.	2.r	.	.
.	(8c#/	.	.	.	.
4A\	4b 4e'^>/)	.	.	.	.
4E\)	4a 4e 4c#'/	.	.	.	.
=111	=111	=111	=111	=111	=111
2.AA\	8r	.	2.r	.	.
.	[8E</	.	.	.	.
.	2e 2c# 2A 2E</]	.	.	.	.
==	==	==	==	==	==
*-	*-	*-	*-	*-	*-
!!!system-decoration: s1{(s2,s3)}
!!!RDF**kern: > = above
!!!RDF**kern: < = below
!!!ENC: Katarzyna Serwa
!!!END: 2022-03-18
!!!ENC: Andrzej Gręziak
!!!END: 2022-03-14
!!!IIIF: https://polona.pl/iiif/item/NzQ3Nzg2OTU/manifest.json
!!!ENC-iiif: Mateusz Mrugas
!!!END-iiif: 2022-08-31
!!!YEC: Copyright 2022 Narodowy Instytut Fryderyka Chopina (https://polishscores.org)
!!!YEM: License CC-BY-4.0 (https://creativecommons.org/licenses/by/4.0)
